X: 32767
T: Polska From Ornunga
R: slip jig
M: 9/8
K: Adorian
|:A z2z2A c2c|B2B G2G BcB|A2c e3g3|f2f d2d fgf|
e2c A2A cdc|B2G- G B2d2c|A2B c2d e2g|fdf e6:|
|:A2c- c e2g2b|b2a- a2a f2g|a2g e2c A2c|B2G- G B2d2c|
A2c- c e2g2b|b2a- a2a f2g|a2g e2c A2c|BGB A6:|

